X:115
T:Ridotta. ThoH.115, The
Q:1/2=90
M:C|
L:1/8
B:Thompson's Compleat Collection of 120 Favourite Hornpipes.
Z:Village Music Project, Simon Wilson 2016
O:England.
K:G
G2G2G2FE|DCB,A, G,B,FG|A2A2A2Bc|dBAFE3F|
G2G2G2FE|DCB,A, G,A,B,C|dBcA BGAF|GEDB,G,4:|
|:d2d2d2ef|gfgde4|d2cB cBAG|ABcEF2ED|
G2e2F2d2|E2c2D2EF|G2FE DCB,A,|B,GA,FG4:|

